X:761
T:Larry O'Brien
S:Bruce & Emmett's Drummers and Fifers Guide (1862), p. 76
M:2/4
L:1/16
Q:1/4=100
K:G
%%MIDI program 72
%%MIDI transpose 8
%%MIDI ratio 3 1
(3DEF|G2GF G(gfg)|e4 d3B|cecA BdBG|FGAG FEFD|DEFG A2B2|
c2e2 d3B|cBAG FGAF|G4 z2::d2|g2fg e2a2|fdef d3d|
g2fg e2a2|fdef d3d|(gd).d.d (gd).d.d|gdgd (gd).d.d|gfed edcB|
cAdG GFED|DEFG A2B2|c2e2 d3B|cBAG FGAF|G4 z2:|
